png/perl.svg

<?xml version="1.0" encoding="UTF-8" standalone="no"?>
<!-- Uploaded to: SVG Repo, www.svgrepo.com, Generator: SVG Repo Mixer Tools -->
<svg width="800px" height="800px" viewBox="0 0 256 256" version="1.1" xmlns="http://www.w3.org/2000/svg" xmlns:xlink="http://www.w3.org/1999/xlink" preserveAspectRatio="xMidYMid">
	<g>
		<path d="M255.759398,127.759398 C255.759398,198.318677 198.559278,255.518797 128,255.518797 C57.4402406,255.518797 0.240601504,198.318677 0.240601504,127.759398 C0.240601504,57.1996391 57.4402406,0 128,0 C198.559278,0 255.759398,57.1996391 255.759398,127.759398" fill="#3A3C5B">
</path>
		<path d="M217.000902,137.208782 C212.69606,110.046316 184.198256,92.4511278 162.977203,79.1809925 C153.706827,73.3844211 138.677414,65.8329023 136.733353,53.6411429 C135.930707,48.6029474 135.96006,43.3977744 135.791639,38.3104962 C135.725233,36.3130226 135.694436,34.304 135.51591,32.3113383 C135.284932,29.7407519 132.668632,32.9089925 131.234647,30.6656241 C127.681925,25.1115789 129.049504,32.3488722 129.398857,35.2692932 C130.220752,42.1384662 131.186045,48.9874286 131.130707,55.9210827 C131.024361,69.1724511 128.889263,81.8574436 125.585323,94.6247218 C117.847098,124.523789 111.743038,155.157654 119.398015,185.753985 C120.98406,192.093353 123.048902,198.347549 125.761444,204.298105 C126.581414,206.097323 128.151098,211.119158 130.407459,211.720662 C138.533053,213.888962 144.677534,214.516932 151.167038,220.561323 C155.19615,224.314226 158.218105,222.264301 162.98394,220.357293 C177.42003,214.57997 189.930827,207.309474 200.160241,195.412211 C214.539549,178.688481 220.47182,159.110737 217.000902,137.208782 M201.732331,164.558436 C200.451368,175.730526 193.443609,185.738105 186.287639,194.035489 C181.100271,200.050045 174.081925,207.855639 166.390857,210.594165 C163.622015,211.58015 166.897564,206.041023 167.303699,205.430376 C169.684692,201.850226 172.618586,198.691609 175.342677,195.379008 C179.373233,190.480842 182.86388,185.339188 185.222737,179.406917 C193.054797,159.718977 191.275308,135.854677 179.68409,118.118496 C173.373594,108.461714 164.712421,100.299549 155.981474,92.8534135 C151.763248,89.2554586 147.494977,85.8538346 143.945143,81.5485113 C143.124211,80.5543459 135.874406,71.0635789 138.129805,69.660391 C138.858346,69.2066165 154.703398,85.8740451 156.426586,87.175218 C162.978647,92.1224662 169.717414,96.696782 175.78394,102.267669 C183.994226,109.810526 192.426346,118.23591 197.130105,128.494195 C202.285233,139.734135 203.12397,152.405173 201.732331,164.558436" fill="#FFFFFF">
</path>
		<path d="M123.294316,3.44348872 C125.672902,5.02953383 126.200782,14.279218 126.200782,22.7358797 C126.200782,31.1944662 126.993805,67.6658045 124.351038,77.444812 C121.708752,87.2238195 115.629714,98.0600301 109.022316,107.574376 C102.415398,117.088722 94.750797,137.174617 95.0149774,149.59591 C95.2786767,162.018647 102.415398,182.368241 107.965594,190.825865 C113.536481,199.315248 122.993564,211.147068 120.915248,213.819669 C117.214797,218.576842 102.151218,202.190436 94.2224361,192.676571 C86.2931729,183.161744 78.364391,163.867429 78.1006917,148.80385 C77.8360301,133.738827 86.2931729,119.731008 92.3722105,111.274827 C98.4512481,102.817203 110.343699,88.2810226 113.515308,81.6741053 C116.686436,75.0667068 120.122707,67.9314286 121.17991,58.6803008 C122.237113,49.4301353 121.17991,16.3931429 121.17991,16.3931429 C121.17991,16.3931429 120.915248,1.85744361 123.294316,3.44348872" fill="#FFFFFF">
</path>
		<path d="M116.951098,19.036391 C119.329203,20.093594 119.593865,23.0005414 119.593865,25.9084511 C119.593865,28.8153985 118.800842,40.708812 118.008301,52.3375639 C117.214797,63.9663158 107.965594,73.7453233 101.093534,80.6164211 C94.2224361,87.4875188 74.4002406,108.895759 66.9998195,119.467789 C59.5998797,130.039338 55.9119398,143.964391 56.6929323,155.675429 C57.4854737,167.568361 60.3924211,179.197113 71.4932932,191.619368 C82.5936842,204.040662 90.2578045,209.855038 96.0716992,212.762947 C101.886556,215.668451 107.701414,217.783338 106.379549,220.427068 C105.057684,223.069353 99.5074887,221.219128 93.4289323,219.105684 C87.3503759,216.990316 66.7356391,208.534617 54.8422256,195.055158 C42.9497744,181.575218 36.871218,163.603729 37.3995789,146.424301 C37.9274586,129.245835 42.685594,122.110075 50.6143759,111.009684 C58.5426767,99.9097744 80.478797,83.5243308 87.3503759,79.2955188 C94.2224361,75.0667068 103.471639,67.9309474 107.965594,62.1165714 C112.458105,56.3017143 114.836692,51.5435789 114.57203,43.6152782 C114.30785,35.6869774 115.101353,28.5507368 114.836692,25.9084511 C114.57203,23.2656842 114.57203,17.9801504 116.951098,19.036391" fill="#FFFFFF">
</path>
		<path d="M117.613233,226.202947 C118.687759,226.159639 118.008782,230.816722 116.110917,233.12794 C114.213053,235.438195 110.953865,236.827429 110.557835,235.898226 C110.15988,234.96806 112.911398,234.433444 114.931008,232.185263 C116.785564,230.120902 116.295218,226.256361 117.613233,226.202947" fill="#FFFFFF">
</path>
		<path d="M139.002707,226.080722 C137.928662,226.03597 138.607639,230.693053 140.505504,233.003308 C142.403368,235.313564 145.662556,236.704241 146.058105,235.774556 C146.455579,234.844391 143.704541,234.310256 141.684932,232.061594 C139.830376,229.998677 140.321203,226.132211 139.002707,226.080722" fill="#FFFFFF">
</path>
		<path d="M129.494617,231.132872 C129.494617,235.200481 129.702015,238.496722 128.814195,238.496722 C127.720902,238.496722 128.133293,235.200481 128.133293,231.132872 C128.133293,227.065744 127.762286,223.76806 128.814195,223.76806 C129.783338,223.76806 129.494617,227.065744 129.494617,231.132872" fill="#FFFFFF">
</path>
	</g>
</svg>

<svg xmlns="http://www.w3.org/2000/svg" width="800" height="800" preserveAspectRatio="xMidYMid" viewBox="0 0 256 256"><path fill="#48327AFF" d="M255.76 127.76c0 70.559-57.2 127.759-127.76 127.759S.24 198.319.24 127.759 57.44 0 128 0s127.76 57.2 127.76 127.76"/><path fill="#FFF" d="M217 137.209c-4.304-27.163-32.802-44.758-54.023-58.028-9.27-5.797-24.3-13.348-26.244-25.54-.802-5.038-.773-10.243-.941-15.33-.067-1.998-.098-4.007-.276-6-.231-2.57-2.847.598-4.281-1.645-3.553-5.554-2.185 1.683-1.836 4.603.822 6.87 1.787 13.718 1.732 20.652-.107 13.251-2.242 25.936-5.546 38.704-7.738 29.899-13.842 60.533-6.187 91.129 1.586 6.34 3.65 12.594 6.363 18.544.82 1.8 2.39 6.821 4.646 7.423 8.126 2.168 14.27 2.796 20.76 8.84 4.03 3.753 7.051 1.703 11.817-.204 14.436-5.777 26.947-13.048 37.176-24.945 14.38-16.724 20.312-36.301 16.84-58.203m-15.268 27.35c-1.28 11.172-8.288 21.18-15.444 29.476-5.188 6.015-12.206 13.82-19.897 16.56-2.769.985.507-4.554.913-5.165 2.38-3.58 5.315-6.738 8.039-10.051 4.03-4.898 7.52-10.04 9.88-15.972 7.832-19.688 6.052-43.552-5.539-61.289-6.31-9.656-14.972-17.818-23.703-25.265-4.218-3.598-8.486-7-12.036-11.304-.82-.995-8.07-10.485-5.815-11.889.728-.453 16.573 16.214 18.297 17.515 6.552 4.947 13.29 9.522 19.357 15.093 8.21 7.543 16.642 15.968 21.346 26.226 5.155 11.24 5.994 23.911 4.602 36.064"/><path fill="#FFF" d="M123.294 3.443c2.379 1.587 2.907 10.836 2.907 19.293 0 8.458.793 44.93-1.85 54.709-2.642 9.779-8.721 20.615-15.329 30.13-6.607 9.514-14.271 29.6-14.007 42.02.264 12.424 7.4 32.773 12.95 41.23 5.571 8.49 15.029 20.322 12.95 22.995-3.7 4.757-18.764-11.63-26.693-21.143-7.929-9.515-15.858-28.81-16.121-43.873-.265-15.065 8.192-29.073 14.271-37.53s17.972-22.993 21.143-29.6 6.608-13.743 7.665-22.994 0-42.287 0-42.287-.265-14.536 2.114-12.95"/><path fill="#FFF" d="M116.951 19.036c2.378 1.058 2.643 3.965 2.643 6.872s-.793 14.8-1.586 26.43c-.793 11.628-10.042 21.407-16.914 28.278C94.222 87.488 74.4 108.896 67 119.468s-11.088 24.496-10.307 36.207c.792 11.893 3.7 23.522 14.8 35.944s18.765 18.236 24.579 21.144c5.815 2.905 11.63 5.02 10.308 7.664-1.322 2.642-6.873.792-12.951-1.321-6.079-2.116-26.693-10.571-38.587-24.05-11.892-13.48-17.97-31.452-17.442-48.632.527-17.178 5.286-24.314 13.214-35.414S80.48 83.524 87.35 79.296c6.872-4.23 16.122-11.365 20.616-17.18 4.492-5.814 6.87-10.572 6.606-18.5s.53-15.065.265-17.708-.265-7.928 2.114-6.872m.662 207.167c1.075-.043.396 4.614-1.502 6.925s-5.157 3.7-5.553 2.77c-.398-.93 2.353-1.465 4.373-3.713 1.855-2.064 1.364-5.929 2.682-5.982m21.39-.123c-1.074-.044-.395 4.613 1.503 6.923s5.157 3.701 5.552 2.772c.398-.93-2.353-1.465-4.373-3.713-1.855-2.063-1.364-5.93-2.682-5.981m-9.508 5.052c0 4.067.207 7.364-.68 7.364-1.094 0-.682-3.297-.682-7.364s-.37-7.365.681-7.365c.97 0 .68 3.298.68 7.365"/></svg>
